src/icons/repo-push.svg

<svg width="16" height="16" viewBox="0 0 16 16" fill="none" xmlns="http://www.w3.org/2000/svg">
<path fill-rule="evenodd" clip-rule="evenodd" d="M13.5 1H3.74C3.51065 0.999996 3.28357 1.04533 3.07181 1.1334C2.86005 1.22147 2.66779 1.35053 2.50608 1.51316C2.34438 1.6758 2.21642 1.8688 2.12957 2.08106C2.04271 2.29332 1.99868 2.52066 2 2.75V12.25C1.99868 12.4793 2.04271 12.7067 2.12957 12.9189C2.21642 13.1312 2.34438 13.3242 2.50608 13.4868C2.66779 13.6495 2.86005 13.7785 3.07181 13.8666C3.28357 13.9547 3.51065 14 3.74 14H7V13H3.74C3.64197 13 3.54492 12.9805 3.45448 12.9427C3.36404 12.9049 3.28202 12.8495 3.21317 12.7797C3.14432 12.71 3.09003 12.6272 3.05343 12.5363C3.01684 12.4453 2.99867 12.348 3 12.25V11.75C2.99867 11.652 3.01684 11.5547 3.05343 11.4637C3.09003 11.3728 3.14432 11.29 3.21317 11.2203C3.28202 11.1505 3.36404 11.0951 3.45448 11.0573C3.54488 11.0195 3.64189 11 3.73987 11C3.73991 11 3.73996 11 3.74 11H4H7V10H4V2H13V10H10V11H13V13H10V14H13.5L14 13.5V1.5L13.5 1ZM3 2.72986C2.99991 2.73657 2.99991 2.74328 3 2.75V10.17L3 2.72986ZM6 3H5V4H6V3ZM5.38 8.64995L6.09 9.34995L8.01001 7.42994V15H9.01001V7.32814L11.04 9.34995L11.74 8.64995L8.92 5.81995H8.21L5.38 8.64995ZM5 5H6V6H5V5Z" fill="white"/>
</svg>

<svg width="16" height="16" xmlns="http://www.w3.org/2000/svg"><path fill-rule="evenodd" clip-rule="evenodd" d="M13.5 1H3.74A1.74 1.74 0 0 0 2 2.75v9.5A1.74 1.74 0 0 0 3.74 14H7v-1H3.74a.74.74 0 0 1-.74-.75v-.5a.74.74 0 0 1 .74-.75H7v-1H4V2h9v8h-3v1h3v2h-3v1h3.5l.5-.5v-12l-.5-.5zM3 2.73v7.44-7.44zM6 3H5v1h1V3zm-.62 5.65l.71.7 1.92-1.92V15h1V7.328l2.03 2.022.7-.7-2.82-2.83h-.71L5.38 8.65zM5 5h1v1H5V5z"/></svg>
